svg/cloud_off_outline.svg

<svg xmlns="http://www.w3.org/2000/svg" viewBox="0 0 24 24"><path d="m7.73 10 8 8H6a4 4 0 0 1-4-4 4 4 0 0 1 4-4M3 5.27 5.75 8C2.56 8.15 0 10.77 0 14a6 6 0 0 0 6 6h11.73l2 2L21 20.73 4.27 4m15.08 6.03A7.49 7.49 0 0 0 12 4c-1.5 0-2.85.43-4 1.17l1.45 1.46C10.21 6.23 11.08 6 12 6a5.5 5.5 0 0 1 5.5 5.5v.5H19a3 3 0 0 1 3 3c0 1.13-.64 2.11-1.56 2.62l1.45 1.45C23.16 18.16 24 16.68 24 15c0-2.64-2.05-4.78-4.65-4.97"/></svg>

<?xml version="1.0" encoding="UTF-8"?><!DOCTYPE svg PUBLIC "-//W3C//DTD SVG 1.1//EN" "http://www.w3.org/Graphics/SVG/1.1/DTD/svg11.dtd"><svg xmlns="http://www.w3.org/2000/svg" xmlns:xlink="http://www.w3.org/1999/xlink" version="1.1" id="mdi-cloud-off-outline" width="24" height="24" viewBox="0 0 24 24"><path d="M7.73,10L15.73,18H6A4,4 0 0,1 2,14A4,4 0 0,1 6,10M3,5.27L5.75,8C2.56,8.15 0,10.77 0,14A6,6 0 0,0 6,20H17.73L19.73,22L21,20.73L4.27,4M19.35,10.03C18.67,6.59 15.64,4 12,4C10.5,4 9.15,4.43 8,5.17L9.45,6.63C10.21,6.23 11.08,6 12,6A5.5,5.5 0 0,1 17.5,11.5V12H19A3,3 0 0,1 22,15C22,16.13 21.36,17.11 20.44,17.62L21.89,19.07C23.16,18.16 24,16.68 24,15C24,12.36 21.95,10.22 19.35,10.03Z" /></svg>
